assets/images/clients/DERJAVA.svg

<svg width="300" height="120" viewBox="0 0 300 120" fill="none" xmlns="http://www.w3.org/2000/svg">
<g clip-path="url(#clip0_3300_14581)">
<path d="M135.503 60.1823V53.8097H133.872V43.8906H125.769C125.611 45.8301 125.348 47.6588 124.875 49.3212C124.401 50.9836 123.822 52.4798 123.086 53.8097H122.086V60.1823H125.243V56.6358H132.293V60.1823H135.503ZM130.557 53.8097H126.558C127.558 51.5931 128.189 49.2104 128.4 46.7167H130.557V53.8097Z" fill="#949494"/>
<path d="M126.564 66.5566C126.177 66.4455 125.624 66.3344 124.961 66.3344H123.136V63.9455H127.062V63.0566H122.086V70.7233H125.072C125.901 70.7233 126.454 70.6121 126.786 70.3899C127.117 70.1677 127.394 69.8899 127.56 69.5566C127.725 69.2233 127.836 68.8344 127.836 68.4455C127.836 67.9455 127.725 67.5566 127.449 67.1677C127.228 66.8899 126.951 66.6677 126.564 66.5566ZM126.343 69.5566C126.067 69.7788 125.68 69.8899 125.127 69.8899H123.081V67.2233H124.408C125.072 67.2233 125.569 67.2788 125.846 67.3344C126.122 67.3899 126.343 67.5566 126.509 67.7788C126.675 68.001 126.73 68.2233 126.73 68.5566C126.786 69.001 126.62 69.3344 126.343 69.5566Z" fill="#949494"/>
<path d="M99.0859 55.39H101.961V51.5566C100.709 52.3823 99.6888 53.7387 99.0859 55.39Z" fill="#949494"/>
<path d="M93.3359 70.724H118.253V43.8906H93.3359V70.724ZM105.82 69.0504C100.692 69.0504 96.444 64.8664 95.926 59.5109H115.663C115.145 64.8664 110.948 69.0504 105.82 69.0504ZM106.442 44.8948H108.98V48.242C112.813 49.6366 115.611 53.4859 115.714 58.1162H106.442V44.8948ZM102.608 48.2978V44.9506H105.147V58.172H95.8742C95.9778 53.5417 98.7751 49.6924 102.608 48.2978Z" fill="#949494"/>
<path d="M106.272 65.932C108.903 65.932 111.212 64.4219 112.501 62.0986H100.043C101.278 64.3638 103.587 65.932 106.272 65.932Z" fill="#949494"/>
<path d="M108.668 51.5566V55.39H111.543C110.986 53.7387 109.966 52.3823 108.668 51.5566Z" fill="#949494"/>
<path d="M161.486 66.8344C161.684 66.7233 161.882 66.6121 162.03 66.4455C162.178 66.2788 162.376 65.8344 162.622 65.2233C162.82 64.7233 162.968 64.3899 163.116 64.2233C163.265 64.0566 163.462 64.001 163.759 64.001C163.759 64.001 163.857 64.001 163.956 64.001C164.055 64.001 164.104 64.001 164.154 64.001V63.1121C164.154 63.1121 163.956 63.1121 163.61 63.1121C163.314 63.1121 163.067 63.1677 162.869 63.3344C162.622 63.501 162.474 63.6677 162.326 63.8344C162.178 64.0566 162.03 64.3899 161.882 64.8899C161.635 65.5566 161.388 66.001 161.239 66.1677C161.091 66.3344 160.795 66.4455 160.35 66.4455V63.0566H159.461V70.7233H160.35V67.1121C160.696 67.1121 160.943 67.2233 161.19 67.4455C161.388 67.6677 161.635 68.0566 161.98 68.6121L163.116 70.6677H164.253L162.869 68.1121C162.376 67.3899 161.931 66.9455 161.486 66.8344Z" fill="#949494"/>
<path d="M193.698 49.7948V49.7406C194.297 49.5781 194.787 49.3073 195.114 48.7656C195.495 48.2781 195.658 47.6823 195.658 46.9781C195.658 45.8948 195.223 45.1365 194.406 44.649C193.589 44.1615 192.337 43.8906 190.649 43.8906H186.293V56.349H191.139C192.609 56.349 193.753 56.024 194.624 55.374C195.495 54.724 195.876 53.8573 195.876 52.7198C195.876 51.9615 195.713 51.3656 195.332 50.8781C195.005 50.3365 194.461 50.0115 193.698 49.7948ZM189.669 46.4365H190.595C191.684 46.4365 192.174 46.7615 192.174 47.4656C192.174 47.8448 192.065 48.1698 191.792 48.3323C191.52 48.549 191.139 48.6573 190.649 48.6573H189.614V46.4365H189.669ZM190.812 53.749H189.614V51.149H190.758C191.302 51.149 191.684 51.2573 192.01 51.474C192.282 51.6906 192.446 52.0156 192.446 52.449C192.391 53.3157 191.901 53.749 190.812 53.749Z" fill="#949494"/>
<path d="M177.067 43.8906L173.117 56.2411L169.324 49.8232L172.906 43.8906H169.377L166.006 49.8771V43.9446H162.845V49.931L159.474 43.9446H155.945L159.474 49.8771L155.629 56.349H159.211L162.793 50.0928V56.349H165.953V50.0389L169.535 56.2951H173.064H173.117H176.646L177.225 53.976H181.176L181.755 56.2951H185.337L181.439 43.8906H177.067ZM178.016 51.2793C178.542 49.3378 178.858 48.0434 178.964 47.3962C179.122 46.749 179.227 46.2636 179.28 45.994C179.332 46.3176 179.438 46.803 179.596 47.558C179.754 48.2591 179.912 48.8524 180.017 49.3378L180.544 51.3872H178.016V51.2793Z" fill="#949494"/>
<path d="M204.291 43.8906H199.872L195.879 56.349H199.499L200.138 54.0299H204.131L204.717 56.349H208.337L204.291 43.8906ZM200.83 51.2793C201.363 49.3378 201.682 48.0434 201.789 47.3962C201.948 46.749 202.055 46.2636 202.108 45.994C202.161 46.3176 202.268 46.803 202.428 47.558C202.587 48.2591 202.747 48.8524 202.853 49.3378L203.386 51.3872H200.83V51.2793Z" fill="#949494"/>
<path d="M150.781 66.2233H147.001V63.0566H146.043V70.7233H147.001V67.1121H150.781V70.7233H151.793V63.0566H150.781V66.2233Z" fill="#949494"/>
<path d="M137.418 56.349H144.126V53.5865H140.476V51.2573H143.83V48.549H140.476V46.599H144.126V43.8906H137.418V56.349Z" fill="#949494"/>
<path d="M136.342 63.0566L133.586 70.7233H134.574L135.354 68.3899H138.37L139.202 70.7233H140.294L137.382 63.0566H136.342ZM135.614 67.6121L136.394 65.3899C136.55 64.8899 136.706 64.3899 136.81 63.8899C136.914 64.3344 137.122 64.8344 137.33 65.501L138.058 67.6121H135.614Z" fill="#949494"/>
<path d="M153.532 44.9198C152.757 44.2156 151.672 43.8906 150.175 43.8906H146.043V56.349H149.245V52.2323H150.175C151.621 52.2323 152.705 51.8531 153.48 51.0948C154.255 50.3365 154.668 49.2531 154.668 47.899C154.668 46.599 154.306 45.624 153.532 44.9198ZM151.001 49.0365C150.691 49.3073 150.33 49.4698 149.865 49.4698H149.297V46.599H150.123C151.001 46.599 151.466 47.0323 151.466 47.8448C151.414 48.3865 151.259 48.7656 151.001 49.0365Z" fill="#949494"/>
</g>
<defs>
<clipPath id="clip0_3300_14581">
<rect width="116" height="28" fill="white" transform="translate(93 43)"/>
</clipPath>
</defs>
</svg>

<svg width="300" height="120" viewBox="0 0 300 120" fill="none" xmlns="http://www.w3.org/2000/svg"><g clip-path="url(#a)" fill="#949494"><path d="M135.503 60.182V53.81h-1.631v-9.92h-8.103c-.158 1.94-.421 3.769-.894 5.431-.474 1.663-1.053 3.159-1.789 4.489h-1v6.372h3.157v-3.546h7.05v3.546h3.21Zm-4.946-6.372h-3.999c1-2.217 1.631-4.6 1.842-7.093h2.157v7.093Zm-3.993 12.747a5.845 5.845 0 0 0-1.603-.223h-1.825v-2.389h3.926v-.888h-4.976v7.666h2.986c.829 0 1.382-.11 1.714-.333.331-.222.608-.5.774-.833a2.55 2.55 0 0 0 .276-1.112c0-.5-.111-.888-.387-1.277a1.708 1.708 0 0 0-.885-.611Zm-.221 3c-.276.222-.663.333-1.216.333h-2.046v-2.667h1.327c.664 0 1.161.056 1.438.111a1.1 1.1 0 0 1 .663.445c.166.222.221.444.221.778.056.444-.11.777-.387 1ZM99.086 55.39h2.875v-3.833c-1.252.825-2.272 2.182-2.875 3.833Z"/><path d="M93.336 70.724h24.917V43.891H93.336v26.833Zm12.484-1.674c-5.128 0-9.376-4.184-9.894-9.54h19.737c-.518 5.356-4.715 9.54-9.843 9.54Zm.622-24.155h2.538v3.347c3.833 1.395 6.631 5.244 6.734 9.874h-9.272V44.895Zm-3.834 3.403V44.95h2.539v13.221h-9.273c.104-4.63 2.901-8.48 6.734-9.874Z"/><path d="M106.272 65.932c2.631 0 4.94-1.51 6.229-3.833h-12.458c1.235 2.265 3.544 3.833 6.229 3.833Zm2.396-14.375v3.833h2.875c-.557-1.651-1.577-3.008-2.875-3.833Zm52.818 15.277c.198-.11.396-.222.544-.389.148-.166.346-.61.592-1.222.198-.5.346-.833.494-1 .149-.166.346-.222.643-.222h.395v-.889h-.544c-.296 0-.543.056-.741.222a2.703 2.703 0 0 0-.543.5c-.148.223-.296.556-.444 1.056-.247.667-.494 1.111-.643 1.278-.148.166-.444.277-.889.277v-3.388h-.889v7.666h.889v-3.61c.346 0 .593.11.84.332.198.223.445.612.79 1.167l1.136 2.056h1.137l-1.384-2.556c-.493-.722-.938-1.166-1.383-1.278Zm32.212-17.039v-.054c.599-.163 1.089-.434 1.416-.975.381-.488.544-1.084.544-1.788 0-1.083-.435-1.842-1.252-2.329-.817-.488-2.069-.758-3.757-.758h-4.356v12.458h4.846c1.47 0 2.614-.325 3.485-.975.871-.65 1.252-1.517 1.252-2.654 0-.758-.163-1.354-.544-1.842-.327-.541-.871-.867-1.634-1.083Zm-4.029-3.358h.926c1.089 0 1.579.325 1.579 1.029 0 .379-.109.704-.382.866-.272.217-.653.325-1.143.325h-1.035v-2.22h.055Zm1.143 7.312h-1.198v-2.6h1.144c.544 0 .926.108 1.252.325.272.217.436.542.436.975-.055.867-.545 1.3-1.634 1.3Zm-13.745-9.859-3.95 12.351-3.793-6.418 3.582-5.932h-3.529l-3.371 5.986v-5.932h-3.161v5.986l-3.371-5.986h-3.529l3.529 5.932-3.845 6.472h3.582l3.582-6.256v6.256h3.16v-6.31l3.582 6.256h7.111l.579-2.319h3.951l.579 2.32h3.582l-3.898-12.405h-4.372Zm.949 7.39c.526-1.942.842-3.237.948-3.884.158-.647.263-1.132.316-1.402.052.324.158.809.316 1.564.158.701.316 1.294.421 1.78l.527 2.05h-2.528v-.109Zm26.275-7.39h-4.419l-3.993 12.459h3.62l.639-2.32h3.993l.586 2.32h3.62l-4.046-12.458Zm-3.461 7.39c.533-1.942.852-3.237.959-3.884a33.5 33.5 0 0 0 .319-1.402c.053.324.16.809.32 1.564.159.701.319 1.294.425 1.78l.533 2.05h-2.556v-.109Zm-50.049 14.943h-3.78v-3.166h-.958v7.666h.958v-3.61h3.78v3.61h1.012v-7.666h-1.012v3.166Zm-13.363-9.874h6.708v-2.762h-3.65v-2.33h3.354V48.55h-3.354V46.6h3.65v-2.708h-6.708V56.35Zm-1.076 6.708-2.756 7.666h.988l.78-2.333h3.016l.832 2.333h1.092l-2.912-7.666h-1.04Zm-.728 4.555.78-2.222c.156-.5.312-1 .416-1.5.104.444.312.944.52 1.611l.728 2.111h-2.444Zm17.918-22.692c-.775-.704-1.86-1.03-3.357-1.03h-4.132v12.46h3.202v-4.117h.93c1.446 0 2.53-.379 3.305-1.137.775-.758 1.188-1.842 1.188-3.196 0-1.3-.362-2.275-1.136-2.98Zm-2.531 4.116c-.31.271-.671.434-1.136.434h-.568v-2.871h.826c.878 0 1.343.433 1.343 1.246-.052.541-.207.92-.465 1.191Z"/></g><defs><clipPath id="a"><path fill="#fff" transform="translate(93 43)" d="M0 0h116v28H0z"/></clipPath></defs></svg>
